X:1
T:Title
%%score [ 1 2 3 4 ]
L:1/8
Q:1/4=96
M:3/2
K:G
V:1 treble nm="I"
V:2 treble-8 nm="II"
V:3 treble-8 nm="III"
V:4 bass nm="IV"
V:1
 z12 | z2 A2 B2 d3 B c3 |xd B2 A4 G2 B3 x |xc d4 c2 B3 A/G/ | F2 A3 G E2 F2 D2 | C4 D2 F2 E2 A3 | %6
w: |Al- * * * *|||||
xG/A/ B3 AGF F3 D | E2 C2 B,2 D2 C4 | B,8 z4 | z12 x2 | z12 | z12 | z4 z4 G4 | G6 A2 B4 | %14
w: ||ma||||quae|per- * *|
 c4 B2 G2 A4 | G2 A4 F2 E2 G2 | F2 D2 E4 D4 | z12 | z4 z4 A4 | B4 A2 B3 c d3 |xc B4 A2 B6 x2 | %21
w: * vi- * *||a _ coe- li||por-||* * * ta|
 x2 d4 c2 B2 A3 x |xG G4 F2 G4 | z2 d2 B2 G2 A3 G | E4 G2 B2 A2 d4 | x2 c2 d4 z2 G2 | F4 G2 A4 F2 | %27
w: ma- * * *|* * * nes,|et _ _ stel- *||* la ma-||
 E4 D4 E4 | D2 G4 F2 E4 x2 | C2 D2 E2 C2 B,4 | A,4 z2 A4 A2 | A3 F G2 A2 B4 | A2 G3 F E4 D2 | %33
w: ris, _ suc-|cur- * re ca-|den- * * * *|ti sur- ge-|re _ qui cu- *|* rat _ po- pu-|
 E12 x2 | z12 | z12 | z12 | z12 | z12 | z12 | z4 z4 D3 E | F3 G A4- AGEF | G3 F D4 z2 C4 | %43
w: lo.|||||||na- *|tu- * * * * * *|* * ra mi-|
 x2 E4 D2 E2 C2 | D2 B,2 A,4 B,4 | z2 C2 D4 E4 x2 | z2 D2 E2 C2 D4 x2 | E4 z2 D4 C2 | %48
w: ran- * * *|* * * te,|tu- um _|san- * * ctum|_ Ge- ni-|
 B,2 D2 C2 A,4 B,2 | C2 D4 E3 D D2 | C2 D4 G2 A2 c2 | B12 ||[M:4/4] G4 B3 A/G/ | A2 B4 c2 | %54
w: to- * * * *|||rem:|Vir- * * *||
 d2 cA B2 A>B x | c d2 c d4 | z8 | z4 d2- d/c/B/A/ | G2 B2 d>c A2 | G3 B>AA FG x | AG E2 D2 z2 | %61
w: |* * * go||pri- * * * *|||* * * us|
 G2 A3 B2 A | B d2 B c2 B2 | z A2 G/A/ B2 G2 x | c4 B2 A3 x |xG/F/ E2 D2 G4 | x2 F2 G4 | %67
w: ac po- * *|ste- * * ri- us,|Ga- bri- * e- *|* lis ab|_ _ _ o- *|* re|
 E2 F2 G2 E2 x | z2 A2 G3 F/E/ x | D4 z2 A2 | B2 G2 A4 | D2 E2 F2 A3 |xGFE G2 F E2 x | %73
w: su- * * *|mens _ _ _|_ il-||lud _ _ A-||
xD/C/ D>C E6 | x2 G2 F2 A3 |xG E2 D2 B,3 |xC D3 C2 B,/A,/ | G,2 D3 C/D/ E3 x |xD D4 C2 | %79
w: * * * * ve,|pec- ca- to-|* * * rum|||* * mi-|
 D2 B,2 A,4 |[M:6/4] G,4 A,2 B,2 C2 D3 |xE G2 F2 A3 G/A/ B2 | c2 d2 B3 G AF E2 | %83
w: se- * *|re- * * * *|||
 D2 G2 A2 B2 G2 c2 | B2 A3 G G4 F2 | G12 |] %86
w: ||re.|
V:2
 G3 ABc d4 c2 | d4 z4 d2 e3 |xf g4 f2 g6 | x2 f2 e4 d4 | z2 d2 c4 d4 | e4 d4 z2 c2 x | %6
w: Al- * * * * *||||||
 d4 e4 d2 B2 | c4 d2 B4 A2 | B4 z4 B3 c | d4 G8 x2 | A4 B4 c4 | B6 G2 A4 | G8 z4 | d6 e2 f4 | %14
w: |* * ma _|_ Red- *|em- pto-|ris _ Ma-||ter,|quae per- *|
 g8 f4 | e4 d2 B4 c2 | d4 B2 A4 d2 | c e2 dcB B4 A2 | B8 z4 | d8 G4 x | A2 B2 c4 B2 d6 | %21
w: |vi- * a _|_ _ _ coe-||li|por- *|* * * ta ma-|
 x4 G2 A2 B2 d2 x2 | c2 B2 A4 G4 | g8 f4 | g4 e2 g2 f2 d2 x2 | e4 d2 B2 c4 | d6 e4 d2 | %27
w: |* * * nes,|et stel-||* * * la|ma- * *|
 c4 B2 G4 A2 | B4 B4 z2 c4 | x2 B2 A4 G4 | z2 d4 d2 d3 B | c2 d2 e4 d4 | c4 B2 B3 G A2 | %33
w: * ris, suc- cur-|* re ca-|den- * ti|sur- ge- re _|qui cu- * *|rat po- pu- * *|
 B4 z4 z4 x2 | g6 fe f4 | g4 f2 d2 e4 | d2 e3 f g4 f2 | g6 e2 f4 | g2 a3 d e2 d2 g2 | %39
w: lo.|Tu _ _ _|_ _ _ _||quae _ ge-|nu- * * * * i-|
 f2 e3 d d4 c2 | d4 z4 d4 | d8 c4 | B8 c4 x2 | c6 B2 A4 | G4 z4 z2 G2 | A4 B4 z2 c4 | %46
w: |sti, na-|tu- *|ra mi-|ran- * *|te, tu-|um _ san-|
 x2 B2 A4 B4 x2 | z2 c4 B2 A4 | G6 E2 F4 | G2 A2 B4 A4 | c2 B3 A G4 F2 | G12 || %52
w: * ctum _|Ge- * ni-|to- * *|||rem:|
[M:4/4] g4- g3 f/e/ | f2 g2 e4 | d2 ef z gf a2 |xf e2 d2 z2 | d2- d/c/B/A/ G2 B2 | dc/B/ A2 G4 | %58
w: Vir- * * *|||* * go|pri- * * * * * *|* * * * us|
 z2 d3 e f2 | g2 e2 f2 de3/2 x/ |x/f/ d2 c d4 | z4 d4 | d4 e2 B2 | c4 B4 x | e4 d2 d4 | %65
w: ac _ po-|* * ste- * *|* * ri- us,|Ga-|bri- e- *|* lis|ab _ o-|
 x2 c2 B2 G2 x2 | A4 B4 | z4 G4 x | A4 B4 x | z4 c4 | B4 A4 | G4 A3 B x | c4 B2 B4 | x2 A2 B4 x2 | %74
w: |re _|su-|mens _|il-|* lud|_ A- *|* * ve,||
 z4 d4 x | c4 d4 x | G4 A4 | B4 c4 x2 | B4 A4 | B2 G2 A F2 E |[M:6/4] G4 F2 E4 D2 x | %81
w: pec-|ca- to-|rum _|_ mi-|se- *||re- * * *|
 G4 B2 A2 d2 z2 | e2 d2 g4 f2 g2 | G4 F2 G2 B2 A2 | d2 A c2 d B2 A4 | G12 |] %86
w: ||||re.|
V:3
 z12 | z12 x | z12 x2 | z12 | z12 | z12 x | z12 | z12 | z12 | z12 x2 | z12 | z12 | z4 z4 c4 | %13
w: ||||||||||||quae|
 B2 G2 B2 c2 d4 | e4 d6 B2 | c4 A2 d2 z2 G2 | A2 B2 G2 E2 F2 G2 | A4 G2 F2 E4 | z2 B4 G2 F3 E | %19
w: _ _ _ _ per-|* vi- *|* a _ coe-||* * * li|por- * * *|
 G4 D4 z2 G2 x | F2 G2 A4 E2 D2 x4 | G4 B2 A2 G2 F4 | x2 G2 D4 z2 d2 | B2 G4 B2 A4 | %24
w: ta _ ma-|||* nes, et|_ _ _ _|
 z2 c4 B2 d4 x2 | A6 F2 G4 | A2 B4 c4 BA | G2 E2 F2 G2 E4 | z4 z4 G2 A2 x2 | F2 G3 E F2 G4 | %30
w: stel- * *|* * la|ma- * * * *|ris, suc- cur- * re|ca- *|* den- * * ti|
 D8 =F4 | E8 G4 | E3 F G4 z2 D2 | G2 E2 G3 A B2 c4 | x2 B2 G4 A4 | G2 B3 A d4 c2 | B2 G4 B2 A4 | %37
w: sur- ge-|re qui|cu- * rat po-|* pu- lo. _ _ _|_ Tu _|_ _ _ _ _||
 G4 E4 D4 | C4 D2 C2 D2 E2 | D2 G4 F2 E4 | D8 z4 | A4 F2 G2 A4 | z2 D2 G4 E4 x2 | C4 z4 C2 E2 | %44
w: * quae _|ge- nu- * * *|i- * * *|sti,|na- tu- * ra|mi- ran- *|te, tu- *|
 D2 G4 F2 G2 E2 | =F4 D4 G2 E2 x2 | =F2 D2 C4 z2 G4 | x2 E6 F4 | D4 E4 z4 | G2 F2 G4 D4 | %50
w: |um _ san- *|ctum _ _ Ge-|* ni-|* to-||
 G2 F3 E D4 C2 | D12 ||[M:4/4] z8 | z8 | z8 x | z8 | z8 | z4 B4 | c2 BG>AB/c/ d2 | G4 FAB c2 | %60
w: |rem:||||||pri-||us ac _ po- ste-|
xB/A/ A2 z A2 G/A/ | BA F3 G2 F | D2 G2 E2 G2 | A4 E4 x | G4 z2 A4 | x2 G3 A B2 x2 | z2 A2 B4 | %67
w: ri- * us, Ga- bri- *|e- * * * *|||lis ab||o- *|
 c2 A2 G2 c3 | x d2 c/d/ e3 d/c/ x | B3 A2 E F2 | G4 D4 | B2 c2 d4 x | c2 A2 G4 x2 | %73
w: * * re su-|mens _ _ _ _ _|_ il- * *|* lud|A- * *|ve, _ _|
 z2 D2 G3 A x2 | B4 A2 F3 |xG A2 D4 x | z8 | D3 E F2 G4 | x2 D2 F3 E | G4 F2 A2 | %80
w: pec- ca- *|* to- *|* * rum||mi- * * *|* se- *|re- * *|
[M:6/4] B4 A2 G4 F2 x | D6 F4 G2 | A2 B2 d3 c A4 | D2 E2 C2 D2 E4 | D2 E2 F2 D6 | D12 |] %86
w: |||||re.|
V:4
 z12 | z12 x | z12 x2 | z12 | z12 | z12 x | z12 | z12 | z4 B,,3 C, D,4 | %9
w: ||||||||Red- * em-|
 G,,3 A,, B,,2 C,2 B,,2 C,4 | x2 D,4 B,,2 A,,2 F,,2 | G,,2 D,2 E,2 G,4 F,2 | G,4 E,4 C,4 | %13
w: pto- * * * * ris|||Ma- * *|
 G,,2 G,4 E,2 D,4 | C,4 G,,4 D,4 | z2 C,2 D,4 E,4 | D,2 B,,4 C,2 D,2 B,,2 | A,,4 E,2 D,2 C,4 | %18
w: * * * ter,|quae _ _|per- * *|* vi- * * *|a coe- * *|
 B,,8 D,4 | G,,4 z4 z4 x | z12 x4 | z12 x2 | z12 | G,,8 D,4 | C,6 G,,2 D,4 x2 | z2 A,,2 D,4 E,4 | %26
w: li por-|ta||||ma- *|* * nes,|et stel- *|
 D,2 B,,4 A,,2 C,2 D,2 | E,4 B,,4 C,4 | B,,2 E,4 D,2 C,2 A,,4 | x2 G,,2 C,2 D,2 E,4 | =F,8 D,4 | %31
w: * * la ma- *|* ris, suc-|cur- * re ca- den-|* ti _ _|sur- ge-|
 A,,4 z2 C,2 B,,2 G,,2 | C,3 D, E,4 F,4 | E,12 x2 | z12 | z12 | z12 | z12 | z12 | z12 | z4 z4 D,4 | %41
w: re qui cu- *|rat _ po- pu-|lo.|||||||na-|
 D,6 C,2 A,,4 | G,,8 A,,4 x2 | z2 A,,4 B,,2 C,2 A,,2 | B,,2 G,,2 D,4 G,,4 | =F,,4 z2 G,,4 A,,4 | %46
w: tu- * *|ra _|mi- * ran- *|te, _ tu- um|_ san- *|
 x2 B,,2 C,2 A,,2 G,,4 x2 | C,3 B,, A,,2 G,,2 =F,,4 | G,,4 C,4 D,4 | E,2 D,2 z2 G,3 F, F,2 | %50
w: ctum _ _ _|Ge- * ni- * to-|||
 E,2 D,4 B,,2 A,,4 | G,,12 ||[M:4/4] z8 | z8 | z8 x | z4 D,2- D,/C,/B,,/A,,/ | G,,2 D,2 E,2 D,E, | %57
w: |rem:||||pri- * * * *||
 D, G,2 F, G,2 z2 | z4 z2 D,2 | E,2 C,B,, D,3 C,2 |xD, A,,2 D,4 | G,,2 D,2 z4 | z2 G,,2 C,2 E,2 | %63
w: * * * us|ac|_ po- * ste- *|* * ri-|us, _|Ga- bri- *|
 A,,4 z2 E,3 |xC, C,2 D,2 =F,4 | x2 C,2 G,4 x2 | D,4 G,,4 | C,2 D,2 E,4 x | F,4 E,2 G,3 | %69
w: * e-|* lis ab _|_ o-|* re|su- * mens|_ _ il-|
xF, D,2 C,2 A,,2 | G,,2 G,2 F,3 E, | G,2 E,2 D,4 x | A,4 E,2 G,2 x2 | F,4 E,3 F, x2 | G,4 D,4 x | %75
w: ||* * lud|A- * *||ve, _|
 z4 z2 G,,2 x | G,,4 F,,4 | G,,4 =F,,2 E,,2 x2 | G,,4 A,,4 | G,,4 D,4 |[M:6/4] G,,6 z6 x | %81
w: pec-|ca- *|to- rum _|_ mi-|se- *|re-|
 G,,4 D,6 G,,2 | C,2 B,,4 G,,2 D,2 C,2 | B,,2 C,2 A,,2 G,,4 A,,2 | B,,2 C,2 =F,,2 G,,2 D,4 | %85
w: ||||
 G,,12 |] %86
w: re.|

